img/unique-openbooks-icon.svg

<?xml version="1.0" encoding="UTF-8" standalone="no"?>
<svg
   width="256"
   height="256"
   viewBox="0 0 256 256"
   fill="none"
   version="1.1"
   id="svg50"
   sodipodi:docname="unique-openbooks-icon.svg"
   inkscape:version="1.2.2 (b0a8486541, 2022-12-01)"
   xmlns:inkscape="http://www.inkscape.org/namespaces/inkscape"
   xmlns:sodipodi="http://sodipodi.sourceforge.net/DTD/sodipodi-0.dtd"
   xmlns="http://www.w3.org/2000/svg"
   xmlns:svg="http://www.w3.org/2000/svg">
  <sodipodi:namedview
     id="namedview52"
     pagecolor="#ffffff"
     bordercolor="#000000"
     borderopacity="0.25"
     inkscape:showpageshadow="2"
     inkscape:pageopacity="0.0"
     inkscape:pagecheckerboard="0"
     inkscape:deskcolor="#d1d1d1"
     showgrid="false"
     inkscape:zoom="3.84375"
     inkscape:cx="128"
     inkscape:cy="128.13008"
     inkscape:window-width="2880"
     inkscape:window-height="1533"
     inkscape:window-x="3840"
     inkscape:window-y="584"
     inkscape:window-maximized="1"
     inkscape:current-layer="svg50" />
  <path
     d="M 256.001,0 H -0.00363159 V 256.01 H 256.001 Z"
     fill="#495962"
     id="path2"
     clip-path="url(#clipPath314)" />
  <defs
     id="defs48">
    <clipPath
       id="clip1_2061_9729">
      <rect
         width="184"
         height="184"
         fill="white"
         transform="translate(36 36)"
         id="rect45" />
    </clipPath>
    <clipPath
       clipPathUnits="userSpaceOnUse"
       id="clipPath308">
      <g
         id="g312">
        <rect
           width="256"
           height="256"
           fill="#ffffff"
           id="rect310"
           x="0"
           y="0" />
      </g>
    </clipPath>
    <clipPath
       clipPathUnits="userSpaceOnUse"
       id="clipPath314">
      <g
         id="g318">
        <rect
           width="256"
           height="256"
           fill="#ffffff"
           id="rect316"
           x="0"
           y="0" />
      </g>
    </clipPath>
  </defs>
  <g
     id="g447"
     style="clip-rule:evenodd;fill-rule:evenodd;image-rendering:optimizeQuality;shape-rendering:geometricPrecision;text-rendering:geometricPrecision"
     transform="matrix(7.793383,0,0,7.793383,5.6195011,3.7781596)">
    <g
       id="g380">
      <path
         style="opacity:1"
         fill="#129999"
         d="m 7.5,4.5 c 1.33333,0 2.6667,0 4,0 0,6 0,12 0,18 -1.052,-0.1495 -2.05198,0.0172 -3,0.5 -1.33333,0.6667 -1.33333,1.3333 0,2 4.9889,0.4993 9.9889,0.6659 15,0.5 0,0.3333 0,0.6667 0,1 -5.3333,0 -10.6667,0 -16,0 0,-0.6667 -0.33333,-1 -1,-1 0,-6.6667 0,-13.3333 0,-20 0.66667,0 1,-0.33333 1,-1 z"
         id="path378" />
    </g>
    <g
       id="g384">
      <path
         style="opacity:1"
         fill="#2fcc98"
         d="m 11.5,4.5 c 4,0 8,0 12,0 0,0.66667 0.3333,1 1,1 0,5.3333 0,10.6667 0,16 -4.2352,0.936 -8.5685,1.2693 -13,1 0,-6 0,-12 0,-18 z"
         id="path382" />
    </g>
    <g
       id="g388">
      <path
         style="opacity:1"
         fill="#d3d7d7"
         d="m 24.5,21.5 c 0.0674,1.4587 -0.2659,2.7921 -1,4 -5.0111,0.1659 -10.0111,-7e-4 -15,-0.5 -1.33333,-0.6667 -1.33333,-1.3333 0,-2 0.94802,-0.4828 1.948,-0.6495 3,-0.5 4.4315,0.2693 8.7648,-0.064 13,-1 z"
         id="path386" />
    </g>
  </g>
</svg>

<?xml version="1.0" encoding="UTF-8"?>
<!DOCTYPE svg PUBLIC "-//W3C//DTD SVG 1.1//EN" "http://www.w3.org/Graphics/SVG/1.1/DTD/svg11.dtd">
<svg xmlns="http://www.w3.org/2000/svg" version="1.1" width="32px" height="32px" style="shape-rendering:geometricPrecision; text-rendering:geometricPrecision; image-rendering:optimizeQuality; fill-rule:evenodd; clip-rule:evenodd" xmlns:xlink="http://www.w3.org/1999/xlink">
<g><path style="opacity:1" fill="#485962" d="M -0.5,-0.5 C 10.1667,-0.5 20.8333,-0.5 31.5,-0.5C 31.5,10.1667 31.5,20.8333 31.5,31.5C 20.8333,31.5 10.1667,31.5 -0.5,31.5C -0.5,20.8333 -0.5,10.1667 -0.5,-0.5 Z"/></g>
<g><path style="opacity:1" fill="#129999" d="M 7.5,4.5 C 8.83333,4.5 10.1667,4.5 11.5,4.5C 11.5,10.5 11.5,16.5 11.5,22.5C 10.448,22.3505 9.44802,22.5172 8.5,23C 7.16667,23.6667 7.16667,24.3333 8.5,25C 13.4889,25.4993 18.4889,25.6659 23.5,25.5C 23.5,25.8333 23.5,26.1667 23.5,26.5C 18.1667,26.5 12.8333,26.5 7.5,26.5C 7.5,25.8333 7.16667,25.5 6.5,25.5C 6.5,18.8333 6.5,12.1667 6.5,5.5C 7.16667,5.5 7.5,5.16667 7.5,4.5 Z"/></g>
<g><path style="opacity:1" fill="#2fcc98" d="M 11.5,4.5 C 15.5,4.5 19.5,4.5 23.5,4.5C 23.5,5.16667 23.8333,5.5 24.5,5.5C 24.5,10.8333 24.5,16.1667 24.5,21.5C 20.2648,22.436 15.9315,22.7693 11.5,22.5C 11.5,16.5 11.5,10.5 11.5,4.5 Z"/></g>
<g><path style="opacity:1" fill="#d3d7d7" d="M 24.5,21.5 C 24.5674,22.9587 24.2341,24.2921 23.5,25.5C 18.4889,25.6659 13.4889,25.4993 8.5,25C 7.16667,24.3333 7.16667,23.6667 8.5,23C 9.44802,22.5172 10.448,22.3505 11.5,22.5C 15.9315,22.7693 20.2648,22.436 24.5,21.5 Z"/></g>
</svg>
